X: 540
T: Dillon's fancy
C: anon.
O: Ireland
B: Francis O'Neill: "The Dance Music of Ireland" (1907) no. 540
R: Reel
Z: Transcribed by Frank Nordberg - http://www.musicaviva.com
F: http://www.musicaviva.com/abc/tunes/ireland/oneill-1001/oneill-1001-054
0.abc
M: C|
L: 1/8
K: A
DAAc eA (3(cBA)|ceae (3(fga)ed|[1cdef edcA|(3(Bcd) cA BF ({G}(3(F)EF):|[2
cefg agaf|edcB Aceg||
({b}a)ece ({b}a)ece|agbg aece|({b}a)ece ({b}a)ecA|GABc defg|({b}a)ece ({b
}a)ece|agbg aece|(A/B/c/d/ e/f/g) agaf|edcB ABAF|]
W:
W:
W: From Musica Viva - http://www.musicaviva.com
W: the Internet center for free sheet music downloads.


